packages/elements/bolt-icon/src/svgs/sales-automation.svg

<svg enable-background="new 0 0 32 32" viewBox="0 0 32 32" xmlns="http://www.w3.org/2000/svg"><path clip-rule="evenodd" d="m30 2.1h-28v3.9h28zm0-2c.5 0 1.1.2 1.4.6s.5.9.6 1.4v3.9c0 .5-.2 1.1-.6 1.4-.4.4-.9.6-1.4.6h-28c-.5 0-1.1-.2-1.4-.6-.4-.4-.6-.9-.6-1.4v-3.9c0-.5.2-1 .6-1.4s.9-.6 1.4-.6zm-4 14h-20v3.9h20zm0-2c.5 0 1.1.2 1.4.6s.5.9.6 1.4v3.9c0 .5-.2 1.1-.6 1.4s-.9.5-1.4.6h-20c-.5 0-1.1-.2-1.4-.6-.4-.4-.6-.9-.6-1.4v-3.9c0-.5.2-1 .6-1.4s.9-.6 1.4-.6zm-4 13.9h-12v3.9h12zm0-2c.5 0 1.1.2 1.4.6s.5.9.6 1.4v3.9c0 1.1-.9 2-2 2h-12c-.5 0-1.1-.2-1.4-.6s-.5-.8-.6-1.3v-3.9c0-.5.2-1.1.6-1.4s.9-.5 1.4-.6z" fill="#151619" fill-rule="evenodd"/></svg>

<?xml version="1.0" encoding="utf-8"?>
<!-- Generator: Adobe Illustrator 25.2.0, SVG Export Plug-In . SVG Version: 6.00 Build 0)  -->
<svg version="1.1" id="Layer_1" xmlns="http://www.w3.org/2000/svg" xmlns:xlink="http://www.w3.org/1999/xlink" x="0px" y="0px"
	 viewBox="0 0 32 32" style="enable-background:new 0 0 32 32;" xml:space="preserve">
<style type="text/css">
	.st0{fill-rule:evenodd;clip-rule:evenodd;fill:#151619;}
</style>
<path class="st0" d="M30,2.1H2V6h28V2.1z M30,0.1c0.5,0,1.1,0.2,1.4,0.6c0.3,0.4,0.5,0.9,0.6,1.4V6c0,0.5-0.2,1.1-0.6,1.4
	C31,7.8,30.5,8,30,8H2C1.5,8,0.9,7.8,0.6,7.4C0.2,7,0,6.5,0,6V2.1c0-0.5,0.2-1,0.6-1.4C1,0.3,1.5,0.1,2,0.1H30z M26,14.1H6V18h20
	V14.1z M26,12.1c0.5,0,1.1,0.2,1.4,0.6c0.3,0.4,0.5,0.9,0.6,1.4V18c0,0.5-0.2,1.1-0.6,1.4C27,19.7,26.5,19.9,26,20H6
	c-0.5,0-1.1-0.2-1.4-0.6C4.2,19,4,18.5,4,18v-3.9c0-0.5,0.2-1,0.6-1.4C5,12.3,5.5,12.1,6,12.1H26z M22,26H10v3.9h12V26z M22,24
	c0.5,0,1.1,0.2,1.4,0.6c0.3,0.4,0.5,0.9,0.6,1.4v3.9c0,1.1-0.9,2-2,2H10c-0.5,0-1.1-0.2-1.4-0.6C8.3,30.9,8.1,30.5,8,30v-3.9
	c0-0.5,0.2-1.1,0.6-1.4c0.4-0.3,0.9-0.5,1.4-0.6L22,24L22,24z"/>
</svg>
